X: 1391
T: Musahabet-i Musikiye
C: Refik Fersan
O: Turkey
F: http://compmusic.upf.edu/node/140
N: rast--medhal--hafif--musahabet_i_musikiye--refik_fersan
N: makam= rast
N: form= medhal
N: usul= hafif = 32/4
M: 32/4
L: 1/16
K: C _1/4B ^f  
Q: 1/4=80
%%MIDI tuningsystem comma53
G8 .G4 .A4  | B6 A2 .G4 .D4  | G4 G3 A B4 A B2 A  | \
w:  1. HANE  |   |   | 
G12 z4  | B8 B4 {d}.c4  | d6 c2 B4 z2 d2  | 
w:   |   |   | 
c8 A4 z2 {d}c B  | B12 z4  | d4 d e2 c .B4 .d4  | \
w:   |   |   | 
c6 B2 A6 z2  | .c4 .B4 .A4 .G4  | 
w:   |   | 
d12 z4  | c4 c d2 B .A4 .c4  | B6 A2 G6 z2  | \
w:   |   |   | 
A4 A B c d B4 A B2 A  | 
w:   | 
G12 z4  | {c}B3/2 A/ B2 G4 {d}c3/2 B/ c2 A4  | \
w:   |  *  TESLİM  | 
d4 ^c2 e2 d4 z2 e f  | g4 ^1/4f2 e2 a2 g2 =f2 e2  | 
w:   |   | 
d2 {g}=f e d2 e2 d c B ^A B4  | {d}c3/2 B/ c2 A4 {c}B3/2 A/ B2 G4  | \
w:   |   | 
z2 d2 ^c2 e2 d2 =c2 B2 A2  | 
w:   | 
G2 c2 B2 A2 G3 F E2 F2  | G12 z4  | G8 G4 .B4  | \
w:   |   |  2. HANE  | 
d4 ^c2 e2 d4 z2 e f  | g8 ^1/4f4 e4  | 
w:   |   | 
d12 z4  | g8 e4 g4  | ^1/4f6 e2 d4 z2 c2  | \
w:   |   |   | 
e8 d4 c4  | B12 z4  | e8 {f}e3 d c4  | d8 {e}d3 c B4  | 
w:   |   |   |   | 
c6 {d}c B B6 {c}B A  | A12 z4  | c8 {d}c3 B A4  | \
w:   |   |   | 
B8 {c}B3 A G4  | B6 {c}B A A6 {B}A G  | 
w:   |   | 
G12 z4  | {c}B3/2 A/ B2 G4 {d}c3/2 B/ c2 A4  | \
w:   |  *  TESLİM  | 
d4 ^c2 e2 d4 z2 e f  | g4 ^1/4f2 e2 a2 g2 =f2 e2  | 
w:   |   | 
d2 {g}=f e d2 e2 d c B ^A B4  | {d}c3/2 B/ c2 A4 {c}B3/2 A/ B2 G4  | \
w:   |   | 
z2 d2 ^c2 e2 d2 =c2 B2 A2  | 
w:   | 
G2 c2 B2 A2 G3 F E2 F2  | G12 z4  | g8 .g4 .a4  | \
w:   |   |  3. HANE  | 
b8 b4 d'4  | c'8 a4 z2 {d'}c' b  | 
w:   |   | 
b12 z4  | g8 (3^1/4f2_1/4e2d2 f4  | _1/4e8 (3d2c2B2 d4  | \
w:   |   |   | 
c8 A4 z2 {d}c B  | B12 z4  | d8 d4 _7/8e4  | 
w:   |   |   | 
f4 z2 _b2 a2 g2 f2 _7/8e2  | d2 _7/8e4 d2 ^c4 f e e d  | \
w:   |   | 
d8 z2 .c2 .B2 .A2  | G4 z2 .D2 G4 A4  | 
w:   |   | 
B8 (3A2B2A2 G4  | A4 A B c d B4 A B2 A  | \
w:   |   | 
G12 z4  | {c}B3/2 A/ B2 G4 {d}c3/2 B/ c2 A4  | 
w:   |  *  TESLİM  | 
d4 ^c2 e2 d4 z2 e f  | g4 ^1/4f2 e2 a2 g2 =f2 e2  | \
w:   |   | 
d2 {g}=f e d2 e2 d c B ^A B4  | 
w:   | 
{d}c3/2 B/ c2 A4 {c}B3/2 A/ B2 G4  | \
w:   | 
z2 d2 ^c2 e2 d2 =c2 B2 A2  | G2 c2 B2 A2 G3 F E2 F2  | 
w:   |   | 
G12 z4  | D8 G8  | B8 d8  | (3d2c2d2 (3e2d2c2 A4 z2 {d}c B  | \
w:   |  4. HANE  |   |   | 
B14 z2  | g8 e8  | f8 d8  | 
w:   |   |   | 
(3B2G2A2 (3B2c2d2 B4 A B2 A  | G12 z4  | \
w:   |   | 
d8 ^c8  | e8 d8  | (3d2B2c2 (3d2e2f2 d4 c3 B  | 
w:   |   |   | 
d12 z4  | c8 A8  | B8 G8  | (3A2G2A2 (3B2c2d2 B4 A B2 A  | \
w:   |   |   |   | 
G12 z4  | {c}B3/2 A/ B2 G4 {d}c3/2 B/ c2 A4  | 
w:   |  *  TESLİM  | 
d4 ^c2 e2 d4 z2 e f  | g4 ^1/4f2 e2 a2 g2 =f2 e2  | \
w:   |   | 
d2 {g}=f e d2 e2 d c B ^A B4  | 
w:   | 
{d}c3/2 B/ c2 A4 {c}B3/2 A/ B2 G4  | \
w:   | 
z2 d2 ^c2 e2 d2 =c2 B2 A2  | G2 c2 B2 A2 G3 F E2 F2  | 
w:   |   | 
G12 z4  | |


